!!!!SEGMENT: pl-sa--55-a-i-55--002_wanski-jan--missa-solemnissima-christe.krn
!!!cenid: 18xx:340
!!!COM: Wański, Jan
!!!COM-rismid: pe30003295
!!!CDT: ~1800-1888/04
!!!CNT: Polish
!!!OTL: Missa Solemnissima – Christe
!!!PDT: 1830
!!!AGN: Sacred; Mass
!!!SMS-siglum: PL-SA
!!!SMS-shelfmark: 55/A I 55
!!!SMS-shelfwork: 001-002 M
!!!SMS-variant:
!!!SMS-altvar:
!!!NIFC-rismid: 1001035335
!!!URL-scan: http://bc.bdsandomierz.pl/dlibra/publication/1331/edition/1299/content
!!!ONB-nifc: UWAGA: części Mszy: Kyrie, Christe, Gloria, Credo, Sanctus, Pleni Sunt, Benedictus, Agnus Dei
**kern	**fb	**kern	**dynam	**kern	**kern	**dynam	**kern	**kern	**kern	**text	**kern	**text	**kern	**kern
*part9	*	*part9	*part9	*part8	*part7	*part7	*part6	*part5	*part4	*part4	*part3	*part3	*part2	*part1
*group	*	*group	*group	*group3	*group3	*group3	*group2	*group2	*group2	*group2	*group2	*group2	*group1	*group1
*staff10	*	*staff9	*	*staff8	*staff7	*	*staff6	*staff5	*staff4	*staff4	*staff3	*staff3	*staff2	*staff1
*I"Organo.	*	*	*	*I"Violino Secundo.	*I"Violino Primo.	*	*I"Baſso.	*I"Tenore.	*I"Alto.	*	*I"Canto.	*	*I"Cornu Secundo in C.	*I"Cornu Primo in C.
*I'org	*	*	*	*I'vl 1	*I'vl 2	*	*I'B	*I'T	*I'A	*	*I'S	*	*I'cor 2 in C	*I'cor 1 in C
*clefF4	*	*clefC1	*	*clefG2	*clefG2	*	*clefF4	*clefC4	*clefC3	*	*clefC1	*	*clefG2	*clefG2
*k[b-]	*	*k[b-]	*	*k[b-]	*k[b-]	*	*k[b-]	*k[b-]	*k[b-]	*	*k[b-]	*	*k[b-]	*k[b-]
*F:	*	*F:	*	*F:	*F:	*	*F:	*F:	*F:	*	*F:	*	*F:	*F:
*M3/4	*	*M3/4	*	*M3/4	*M3/4	*	*M3/4	*M3/4	*M3/4	*	*M3/4	*	*M3/4	*M3/4
=1	=1	=1	=1	=1	=1	=1	=1	=1	=1	=1	=1	=1	=1	=1
*	*above	*	*	*	*	*	*	*	*	*	*	*	*	*
!	!	!	!	!	!	!	!	!	!LO:TX:a:t=P:problem:w źródle "Christe" zapisane na pięciolinii, przed pierwszym taktem	!	!LO:TX:a:t=P:problem:w źródle "Christe" zapisane na pięciolinii, przed pierwszym taktem	!	!	!
!	!	!\	!	!LO:TX:a:t=6.	!LO:TX:a:t=6	!	!	!	!LO:TX:a:i:t=Christe	!	!LO:TX:a:i:t=Christe	!	!	!
!	!	!	!	!LO:TX:a:t=P:problem:w źródle "Christe" zapisane na pięciolinii, przed pierwszym taktem	!LO:TX:a:t=P:problem:w źródle "Christe" zapisane na pięciolinii, przed pierwszym taktem	!	!	!	!	!	!	!	!	!
!	!	!	!	!LO:TX:a:i:t=Christe	!LO:TX:a:i:t=Christe	!	!	!	!	!	!	!	!	!
!	!	!	!	!	!	!	!LO:TX:a:t=P:problem:w źródle ta adnotacja zapisana na pięciolinii	!LO:TX:a:t=P:problem:w źródle ta adnotacja zapisana na pięciolinii	!	!	!	!	!LO:TX:a:t=P:problem:w źródle ta adnotacja zapisana na pięciolinii	!LO:TX:a:t=P:problem:w źródle ta adnotacja zapisana na pięciolinii
!	!	!LO:TX:a:i:t=Andante.	!	!LO:TX:a:i:t=Andante.	!LO:TX:a:i:t=Andante.	!	!LO:TX:a:i:t=Christe Tacet.	!LO:TX:a:i:t=Christe Tacet.	!LO:TX:a:i:t=andant(e).	!	!LO:TX:a:i:t=Andante.	!	!LO:TX:a:i:t=Christe Tacet.	!LO:TX:a:i:t=Christe Tacet.
!	!	!LO:TX:a:i:t=Christe.	!	!	!	!	!	!	!	!	!	!	!	!
!	!	!	!	!LO:N:vis=00	!LO:N:vis=00	!	!	!	!	!	!	!	!	!
4F\	.	2.ryy	.	0.r	0.r	.	2.ryy	2.ryy	4a\	Chri-	4cc\	Chri-	2.ryy	2.ryy
4A\	X X -	.	.	.	.	.	.	.	4a\	.	4cc\	.	.	.
4c\	X X 5	.	.	.	.	.	.	.	4g\	-ste	4b-\	-ste	.	.
=2	=2	=2	=2	=2	=2	=2	=2	=2	=2	=2	=2	=2	=2	=2
4F\	.	2.ryy	.	.	.	.	2.ryy	2.ryy	8f\L	e-	8a\L	e-	2.ryy	2.ryy
.	.	.	.	.	.	.	.	.	8g\J	.	8b-\J	-lei-	.	.
8r	.	.	.	.	.	.	.	.	4a\	-lei-	4cc\	-son	.	.
8F\L	.	.	.	.	.	.	.	.	.	.	.	.	.	.
8G\	.	.	.	.	.	.	.	.	8r	.	8r	.	.	.
8A\J	.	.	.	.	.	.	.	.	8a\	-son	8cc\	Chri-	.	.
=3	=3	=3	=3	=3	=3	=3	=3	=3	=3	=3	=3	=3	=3	=3
.	.	.	.	.	.	.	.	.	.	.	8qqcc/	.	.	.
4B-\	X 9 7	2.ryy	.	.	.	.	2.ryy	2.ryy	4g\	Chri-	4b-\	.	2.ryy	2.ryy
4c\	X 8 6	.	.	.	.	.	.	.	4f\	.	4a\	-ste	.	.
.	X X 4	.	.	.	.	.	.	.	.	.	.	.	.	.
4C/	X X 3	.	.	.	.	.	.	.	4e\	-ste	4g\	-e-	.	.
=4	=4	=4	=4	=4	=4	=4	=4	=4	=4	=4	=4	=4	=4	=4
4F\	.	2.ryy	.	.	.	.	2.ryy	2.ryy	8f\L	e-	8a\L	-lei-	2.ryy	2.ryy
.	.	.	.	.	.	.	.	.	8g\J	.	8b-\J	.	.	.
8r	.	.	.	.	.	.	.	.	4a\	-lei-	4cc\	-son	.	.
8F\L	.	.	.	.	.	.	.	.	.	.	.	.	.	.
8G\	.	.	.	.	.	.	.	.	8r	.	8r	.	.	.
8A\J	.	.	.	.	.	.	.	.	8a\	-son	8cc\	Chri-	.	.
=5	=5	=5	=5	=5	=5	=5	=5	=5	=5	=5	=5	=5	=5	=5
.	.	.	.	.	.	.	.	.	.	.	8qqcc/	.	.	.
!	!	!	!	!LO:N:vis=0	!LO:N:vis=0	!	!	!	!	!	!	!	!	!
4B-\	X 9 7	2.ryy	.	1.r	1.r	.	2.ryy	2.ryy	4g\	Chri-	4b-\	.	2.ryy	2.ryy
.	X 8 6	.	.	.	.	.	.	.	.	.	.	.	.	.
4c\	X X 4	.	.	.	.	.	.	.	4f\	.	4a\	-ste	.	.
4C/	X X 3	.	.	.	.	.	.	.	4e\	ste	4g\	e-	.	.
=6	=6	=6	=6	=6	=6	=6	=6	=6	=6	=6	=6	=6	=6	=6
!	!	!LO:TX:b:i:t=Solo.	!	!	!	!	!	!	!	!	!	!	!	!
4F\	.	2.ryy	.	.	.	.	2.ryy	2.ryy	4f\	elei-	8.f/L	-lei-	2.ryy	2.ryy
.	.	.	.	.	.	.	.	.	.	.	32g/LL	.	.	.
.	.	.	.	.	.	.	.	.	.	.	32a/JJJ	.	.	.
4C/	.	.	.	.	.	.	.	.	4e\	-son	4b-\	-son	.	.
4r	.	.	.	.	.	.	.	.	4r	.	4r	.	.	.
=7	=7	=7	=7	=7	=7	=7	=7	=7	=7	=7	=7	=7	=7	=7
!	!	!	!	!	!	!	!	!	!LO:N:vis=00	!	!LO:N:vis=00	!	!	!
!	!	!	!	!	!	!LO:DY:rj	!	!	!	!	!	!	!	!
!	!	!	!	!	!	!LO:DY:b:t=p.	!	!	!	!	!	!	!	!
16E\LL	.	8b-\L	.	4G/	4c/	p	2.ryy	2.ryy	0.r	.	0.r	.	2.ryy	2.ryy
16c\	.	.	.	.	.	.	.	.	.	.	.	.	.	.
16G\	.	8b-\J	.	.	.	.	.	.	.	.	.	.	.	.
16c\JJ	.	.	.	.	.	.	.	.	.	.	.	.	.	.
*rep	*	*	*	*	*	*	*	*	*	*	*	*	*	*
16E\LL	.	16r	.	4G/	4c/	.	.	.	.	.	.	.	.	.
!	!	!	!	!	!	!	!	!	!LO:TX:a:t=6.	!	!LO:TX:a:t=6	!	!	!
16c\	.	16b-\LL	.	.	.	.	.	.	.	.	.	.	.	.
16G\	.	16cc\	.	.	.	.	.	.	.	.	.	.	.	.
16c\JJ	.	16b-\JJ	.	.	.	.	.	.	.	.	.	.	.	.
*Xrep	*	*	*	*	*	*	*	*	*	*	*	*	*	*
*rep	*	*	*	*	*	*	*	*	*	*	*	*	*	*
16E\LL	.	16gg\LL	.	4G/	4c/	.	.	.	.	.	.	.	.	.
16c\	.	16b-\	.	.	.	.	.	.	.	.	.	.	.	.
16G\	.	16cc\	.	.	.	.	.	.	.	.	.	.	.	.
16c\JJ	.	16b-\JJ	.	.	.	.	.	.	.	.	.	.	.	.
*Xrep	*	*	*	*	*	*	*	*	*	*	*	*	*	*
=8	=8	=8	=8	=8	=8	=8	=8	=8	=8	=8	=8	=8	=8	=8
16F\LL	.	8a\L	.	4A/	4c/	.	2.ryy	2.ryy	.	.	.	.	2.ryy	2.ryy
16c\	.	.	.	.	.	.	.	.	.	.	.	.	.	.
16A\	.	8a\J	.	.	.	.	.	.	.	.	.	.	.	.
16c\JJ	.	.	.	.	.	.	.	.	.	.	.	.	.	.
*rep	*	*	*	*	*	*	*	*	*	*	*	*	*	*
16F\LL	.	16r	.	4A/	4c/	.	.	.	.	.	.	.	.	.
16c\	.	16a\LL	.	.	.	.	.	.	.	.	.	.	.	.
16A\	.	16cc\	.	.	.	.	.	.	.	.	.	.	.	.
16c\JJ	.	16a\JJ	.	.	.	.	.	.	.	.	.	.	.	.
*Xrep	*	*	*	*	*	*	*	*	*	*	*	*	*	*
*rep	*	*	*	*	*	*	*	*	*	*	*	*	*	*
16F\LL	.	16ff\LL	.	4A/	4c/	.	.	.	.	.	.	.	.	.
16c\	.	16cc\	.	.	.	.	.	.	.	.	.	.	.	.
16A\	.	16b-\	.	.	.	.	.	.	.	.	.	.	.	.
16c\JJ	.	16a\JJ	.	.	.	.	.	.	.	.	.	.	.	.
*Xrep	*	*	*	*	*	*	*	*	*	*	*	*	*	*
!LO:LB:g=original	!	!LO:LB:g=original	!	!	!	!	!	!	!	!	!	!	!	!
=9	=9	=9	=9	=9	=9	=9	=9	=9	=9	=9	=9	=9	=9	=9
16E\LL	.	8b-\L	.	4G/	4c/	.	2.ryy	2.ryy	.	.	.	.	2.ryy	2.ryy
16c\	.	.	.	.	.	.	.	.	.	.	.	.	.	.
16G\	.	8b-\J	.	.	.	.	.	.	.	.	.	.	.	.
16c\JJ	.	.	.	.	.	.	.	.	.	.	.	.	.	.
*rep	*	*	*	*	*	*	*	*	*	*	*	*	*	*
16E\LL	.	16r	.	4G/	4c/	.	.	.	.	.	.	.	.	.
16c\	.	16b-\LL	.	.	.	.	.	.	.	.	.	.	.	.
16G\	.	16cc\	.	.	.	.	.	.	.	.	.	.	.	.
16c\JJ	.	16b-\JJ	.	.	.	.	.	.	.	.	.	.	.	.
*Xrep	*	*	*	*	*	*	*	*	*	*	*	*	*	*
*rep	*	*	*	*	*	*	*	*	*	*	*	*	*	*
16E\LL	.	16gg\LL	.	4G/	4c/	.	.	.	.	.	.	.	.	.
16c\	.	16b-\	.	.	.	.	.	.	.	.	.	.	.	.
16G\	.	16cc\	.	.	.	.	.	.	.	.	.	.	.	.
16c\JJ	.	16b-\JJ	.	.	.	.	.	.	.	.	.	.	.	.
*Xrep	*	*	*	*	*	*	*	*	*	*	*	*	*	*
=10	=10	=10	=10	=10	=10	=10	=10	=10	=10	=10	=10	=10	=10	=10
16F\LL	.	8a\L	.	4A/	4c/	.	2.ryy	2.ryy	.	.	.	.	2.ryy	2.ryy
16c\	.	.	.	.	.	.	.	.	.	.	.	.	.	.
16A\	.	8a\J	.	.	.	.	.	.	.	.	.	.	.	.
16c\JJ	.	.	.	.	.	.	.	.	.	.	.	.	.	.
*rep	*	*	*	*	*	*	*	*	*	*	*	*	*	*
16F\LL	.	16r	.	4A/	4c/	.	.	.	.	.	.	.	.	.
16c\	.	16a\LL	.	.	.	.	.	.	.	.	.	.	.	.
16A\	.	16cc\	.	.	.	.	.	.	.	.	.	.	.	.
16c\JJ	.	16a\JJ	.	.	.	.	.	.	.	.	.	.	.	.
*Xrep	*	*	*	*	*	*	*	*	*	*	*	*	*	*
*rep	*	*	*	*	*	*	*	*	*	*	*	*	*	*
16F\LL	.	16ff\LL	.	4A/	4c/	.	.	.	.	.	.	.	.	.
16c\	.	16cc\	.	.	.	.	.	.	.	.	.	.	.	.
16A\	.	16b-\	.	.	.	.	.	.	.	.	.	.	.	.
16c\JJ	.	16a\JJ	.	.	.	.	.	.	.	.	.	.	.	.
*Xrep	*	*	*	*	*	*	*	*	*	*	*	*	*	*
=11	=11	=11	=11	=11	=11	=11	=11	=11	=11	=11	=11	=11	=11	=11
!	!	!	!	!	!	!	!	!	!LO:N:vis=0	!	!LO:N:vis=0	!	!	!
16BB-\LL	.	16dd\LL	.	4d/	4g/	.	2.ryy	2.ryy	1.r	.	1.r	.	2.ryy	2.ryy
16G\	.	16b-\	.	.	.	.	.	.	.	.	.	.	.	.
16D\	.	16a\	.	.	.	.	.	.	.	.	.	.	.	.
16G\JJ	.	16g\JJ	.	.	.	.	.	.	.	.	.	.	.	.
16C\LL	.	16cc\LL	.	4A/	4f/	.	.	.	.	.	.	.	.	.
16A\	.	16a\	.	.	.	.	.	.	.	.	.	.	.	.
16F\	.	16g\	.	.	.	.	.	.	.	.	.	.	.	.
16A\JJ	.	16f\JJ	.	.	.	.	.	.	.	.	.	.	.	.
16C\LL	.	16b-\LL	.	4B-/	4e/	.	.	.	.	.	.	.	.	.
16B-\	.	16g\	.	.	.	.	.	.	.	.	.	.	.	.
16G\	.	16f\	.	.	.	.	.	.	.	.	.	.	.	.
16B-\JJ	.	16e\JJ	.	.	.	.	.	.	.	.	.	.	.	.
=12	=12	=12	=12	=12	=12	=12	=12	=12	=12	=12	=12	=12	=12	=12
16F\LL	.	16f\LL	.	8A/L	8f/L	.	2.ryy	2.ryy	.	.	.	.	2.ryy	2.ryy
16F\	.	16ff\	.	.	.	.	.	.	.	.	.	.	.	.
16E\	.	16ee\	.	16A/L	16f/L	.	.	.	.	.	.	.	.	.
16F\JJ	.	16ff\JJ	.	16B-/JJ	16g/JJ	.	.	.	.	.	.	.	.	.
16C\LL	.	16cc\LL	.	8A/L	8f/L	.	.	.	.	.	.	.	.	.
16F\	.	16ff\	.	.	.	.	.	.	.	.	.	.	.	.
16AA\	.	16a\	.	16A/L	16f/L	.	.	.	.	.	.	.	.	.
16C\JJ	.	16cc\JJ	.	16B-/JJ	16g/JJ	.	.	.	.	.	.	.	.	.
!	!	!	!LO:DY:b=2:t=pia	!	!	!	!	!	!	!	!	!	!	!
4FF/	.	4f/	p	4A/	4f/	.	.	.	.	.	.	.	.	.
!	!	!	!	!	!	!	!	!	!	!	!LO:LB:g=original	!	!	!
=13	=13	=13	=13	=13	=13	=13	=13	=13	=13	=13	=13	=13	=13	=13
!	!	!	!	!LO:TX:a:t=6.	!LO:TX:a:t=6	!	!	!	!	!	!	!	!	!
!	!	!	!	!LO:N:vis=00	!LO:N:vis=00	!	!	!	!	!	!	!	!	!
4F\	.	2.ryy	.	0.r	0.r	.	2.ryy	2.ryy	4f\	Chri-	4a\	Chri-	2.ryy	2.ryy
4A\	.	.	.	.	.	.	.	.	4f\	.	4a\	.	.	.
4F\	.	.	.	.	.	.	.	.	4f\	-ste	4a\	-ste	.	.
!LO:LB:g=original	!	!LO:LB:g=original	!	!	!	!	!	!	!	!	!	!	!	!
=14	=14	=14	=14	=14	=14	=14	=14	=14	=14	=14	=14	=14	=14	=14
4C/	X 6 4	2.ryy	.	.	.	.	2.ryy	2.ryy	8f\L	e-	8a\L	e-	2.ryy	2.ryy
.	X 5 3	.	.	.	.	.	.	.	8e\J	.	8g\J	.	.	.
4r	.	.	.	.	.	.	.	.	4e\	-lei-	4g\	-lei-	.	.
4C/	.	.	.	.	.	.	.	.	4e\	-son	4cc\	-son	.	.
=15	=15	=15	=15	=15	=15	=15	=15	=15	=15	=15	=15	=15	=15	=15
4G\	X 6 4	2.ryy	.	.	.	.	2.ryy	2.ryy	4e\	Chri-	4cc\	Chri-	2.ryy	2.ryy
!LO:TX:a:t=P:problem: odczytanie b.c. w tym miejscu niepewne (zapis niewyraźny)	!	!	!	!	!	!	!	!	!	!	!	!	!	!
4GG/	X 4 2	.	.	.	.	.	.	.	8d\L	.	8bn\L	.	.	.
.	.	.	.	.	.	.	.	.	8e\J	.	8cc\J	.	.	.
4G\	X X 3	.	.	.	.	.	.	.	4f\	-ste	4dd\	-ste	.	.
=16	=16	=16	=16	=16	=16	=16	=16	=16	=16	=16	=16	=16	=16	=16
4C/	X 9 4	2.ryy	.	.	.	.	2.ryy	2.ryy	4f\	e-	4dd\	e-	2.ryy	2.ryy
4C/	X 8 3	.	.	.	.	.	.	.	4e\	-lei-	4cc\	-lei-	.	.
4r	.	.	.	.	.	.	.	.	4g\	-son	4ee\	-son	.	.
=17	=17	=17	=17	=17	=17	=17	=17	=17	=17	=17	=17	=17	=17	=17
!	!	!	!	!LO:N:vis=0	!LO:N:vis=0	!	!	!	!	!	!	!	!	!
4F\	X 7 3	2.ryy	.	1.r	1.r	.	2.ryy	2.ryy	8g\L	Ky-	8ee\L	Chri-	2.ryy	2.ryy
.	.	.	.	.	.	.	.	.	16a\L	.	16ff\L	.	.	.
.	.	.	.	.	.	.	.	.	16g\JJ	.	16ee\JJ	.	.	.
!	!	!	!	!	!	!	!	!	!LO:LB:g=original	!	!	!	!	!
4r	.	.	.	.	.	.	.	.	8g\L	-ri-	8ee\L	-ste	.	.
.	X 6 X	.	.	.	.	.	.	.	8f\	.	8dd\	.	.	.
4F\	X 5 3	.	.	.	.	.	.	.	8e\	-e	8dd\	.	.	.
.	.	.	.	.	.	.	.	.	8d\J	.	8cc\J	e-	.	.
=18	=18	=18	=18	=18	=18	=18	=18	=18	=18	=18	=18	=18	=18	=18
4G\	X X 4	2.ryy	.	.	.	.	2.ryy	2.ryy	8.e\L	e-	8.cc\L	.	2.ryy	2.ryy
.	.	.	.	.	.	.	.	.	32d\LL	-lei-	32bn\LL	-lei-	.	.
.	.	.	.	.	.	.	.	.	32e\JJJ	.	32cc\JJJ	.	.	.
8G\L	X X 3	.	.	.	.	.	.	.	4d\	-son	4b\	-son	.	.
8F\	.	.	.	.	.	.	.	.	.	.	.	.	.	.
8E\	.	.	.	.	.	.	.	.	4r	.	4r	.	.	.
8D\J	.	.	.	.	.	.	.	.	.	.	.	.	.	.
=19	=19	=19	=19	=19	=19	=19	=19	=19	=19	=19	=19	=19	=19	=19
!	!	!	!	!	!	!	!	!	!LO:TX:a:t=7.	!	!LO:TX:a:t=7	!	!	!
!	!	!	!	!	!	!	!	!	!LO:N:vis=00	!	!LO:N:vis=00	!	!	!
4E\	X X 6	2.ryy	.	8G/	8g/	.	2.ryy	2.ryy	0.r	.	0.r	.	2.ryy	2.ryy
.	.	.	.	4G/	4g/	.	.	.	.	.	.	.	.	.
4C/	.	.	.	.	.	.	.	.	.	.	.	.	.	.
.	.	.	.	8e/	8ee\	.	.	.	.	.	.	.	.	.
4F\	X 4 2	.	.	16e/LL	16ee\LL	.	.	.	.	.	.	.	.	.
.	.	.	.	16d/	16dd\	.	.	.	.	.	.	.	.	.
.	.	.	.	16c/	16cc\	.	.	.	.	.	.	.	.	.
.	.	.	.	16Bn/JJ	16bn\JJ	.	.	.	.	.	.	.	.	.
!	!	!	!	!	!LO:LB:g=original	!	!	!	!	!	!	!	!	!
=20	=20	=20	=20	=20	=20	=20	=20	=20	=20	=20	=20	=20	=20	=20
4E\	X X 6	2.ryy	.	16c/LL	16cc\LL	.	2.ryy	2.ryy	.	.	.	.	2.ryy	2.ryy
.	.	.	.	16G/JJ	16g\JJ	.	.	.	.	.	.	.	.	.
.	.	.	.	4G/	4g\	.	.	.	.	.	.	.	.	.
4C\	.	.	.	.	.	.	.	.	.	.	.	.	.	.
.	.	.	.	8e/	8ee\	.	.	.	.	.	.	.	.	.
4F\	X 4 2	.	.	16e/LL	16ee\LL	.	.	.	.	.	.	.	.	.
.	.	.	.	16d/	16dd\	.	.	.	.	.	.	.	.	.
.	.	.	.	16c/	16cc\	.	.	.	.	.	.	.	.	.
.	.	.	.	16Bn/JJ	16bn\JJ	.	.	.	.	.	.	.	.	.
!	!	!	!	!LO:LB:g=original	!	!	!	!	!	!	!	!	!	!
=21	=21	=21	=21	=21	=21	=21	=21	=21	=21	=21	=21	=21	=21	=21
4E\	.	2.ryy	.	16c/LL	16cc\LL	.	2.ryy	2.ryy	.	.	.	.	2.ryy	2.ryy
.	.	.	.	16G/	16g\	.	.	.	.	.	.	.	.	.
.	.	.	.	16A/	16a\	.	.	.	.	.	.	.	.	.
.	.	.	.	16Bn/JJ	16bn\JJ	.	.	.	.	.	.	.	.	.
4C/	.	.	.	16c/LL	16cc\LL	.	.	.	.	.	.	.	.	.
.	.	.	.	16d/	16dd\	.	.	.	.	.	.	.	.	.
.	.	.	.	16e/	16ee\	.	.	.	.	.	.	.	.	.
.	.	.	.	16f/JJ	16ff\JJ	.	.	.	.	.	.	.	.	.
4r	.	.	.	16g\LL	16gg\LL	.	.	.	.	.	.	.	.	.
.	.	.	.	16a\	16aa\	.	.	.	.	.	.	.	.	.
.	.	.	.	16bn\	16bbn\	.	.	.	.	.	.	.	.	.
.	.	.	.	16cc\JJ	16ccc\JJ	.	.	.	.	.	.	.	.	.
!LO:LB:g=original	!	!LO:LB:g=original	!	!	!	!	!	!	!	!	!	!	!	!
=22	=22	=22	=22	=22	=22	=22	=22	=22	=22	=22	=22	=22	=22	=22
4F\	.	2.ryy	.	16a\LL	16aa\LL	.	2.ryy	2.ryy	.	.	.	.	2.ryy	2.ryy
.	.	.	.	16b-\	16bbn\	.	.	.	.	.	.	.	.	.
.	.	.	.	16cc\	16ccc\	.	.	.	.	.	.	.	.	.
.	.	.	.	16a\JJ	16aa\JJ	.	.	.	.	.	.	.	.	.
4E\	.	.	.	8g/L	8gg\L	.	.	.	.	.	.	.	.	.
.	.	.	.	8g/J	8gg\J	.	.	.	.	.	.	.	.	.
4C\	X X 6	.	.	4g/	4gg\	.	.	.	.	.	.	.	.	.
=23	=23	=23	=23	=23	=23	=23	=23	=23	=23	=23	=23	=23	=23	=23
!	!	!	!	!	!	!	!	!	!LO:N:vis=0	!	!LO:N:vis=0	!	!	!
4D/	X X 6/	2.ryy	.	16f/LL	16ff\LL	.	2.ryy	2.ryy	1.r	.	1.r	.	2.ryy	2.ryy
.	.	.	.	16g/	16gg\	.	.	.	.	.	.	.	.	.
.	.	.	.	16a/	16aa\	.	.	.	.	.	.	.	.	.
.	.	.	.	16f/JJ	16ff\JJ	.	.	.	.	.	.	.	.	.
4C/	.	.	.	8e/L	8ee\L	.	.	.	.	.	.	.	.	.
.	.	.	.	8e/	8ee\	.	.	.	.	.	.	.	.	.
4C/	.	.	.	8e/	8ee\	.	.	.	.	.	.	.	.	.
.	.	.	.	8g/J	8gg\J	.	.	.	.	.	.	.	.	.
=24	=24	=24	=24	=24	=24	=24	=24	=24	=24	=24	=24	=24	=24	=24
4F\	.	2.ryy	.	16g#X/LL	16gg#X\LL	.	2.ryy	2.ryy	.	.	.	.	2.ryy	2.ryy
.	.	.	.	16a/	16aa\	.	.	.	.	.	.	.	.	.
.	.	.	.	16g#/	16gg#\	.	.	.	.	.	.	.	.	.
.	.	.	.	16a/JJ	16aa\JJ	.	.	.	.	.	.	.	.	.
4G\	X X 4	.	.	16f#X/LL	16ff#X\LL	.	.	.	.	.	.	.	.	.
.	X X 3	.	.	16gn/	16gg#\	.	.	.	.	.	.	.	.	.
.	.	.	.	16e/	16ee\	.	.	.	.	.	.	.	.	.
.	.	.	.	16c/JJ	16cc\JJ	.	.	.	.	.	.	.	.	.
4GG/	.	.	.	16Bn/LL	16bn\LL	.	.	.	.	.	.	.	.	.
.	.	.	.	16c/	16cc\	.	.	.	.	.	.	.	.	.
.	.	.	.	16d/	16dd\	.	.	.	.	.	.	.	.	.
.	.	.	.	16B/JJ	16b\JJ	.	.	.	.	.	.	.	.	.
=25	=25	=25	=25	=25	=25	=25	=25	=25	=25	=25	=25	=25	=25	=25
4C/	.	2.ryy	.	8c/L	8cc\L	.	2.ryy	2.ryy	2.r	.	2.r	.	2.ryy	2.ryy
.	.	.	.	8G/J	8g\J	.	.	.	.	.	.	.	.	.
4r	.	.	.	4c/	4c/	.	.	.	.	.	.	.	.	.
4r	.	.	.	4r	4r	.	.	.	.	.	.	.	.	.
=26	=26	=26	=26	=26	=26	=26	=26	=26	=26	=26	=26	=26	=26	=26
!	!	!	!	!LO:TX:a:t=8.	!LO:TX:a:t=8	!	!	!	!	!	!	!	!	!
!	!	!	!	!LO:N:vis=00	!LO:N:vis=00	!	!	!	!	!	!	!	!	!
4C\	.	2.ryy	.	0.r	0.r	.	2.ryy	2.ryy	4e\	Chri-	4g/	Chri-	2.ryy	2.ryy
4E\	.	.	.	.	.	.	.	.	4e\	.	4g/	.	.	.
4G\	.	.	.	.	.	.	.	.	4d\	-ste	4g/	-ste	.	.
=27	=27	=27	=27	=27	=27	=27	=27	=27	=27	=27	=27	=27	=27	=27
4C/	.	2.ryy	.	.	.	.	2.ryy	2.ryy	8c\L	e-	8e/L	e-	2.ryy	2.ryy
.	.	.	.	.	.	.	.	.	8d\J	.	8f/J	-lei-	.	.
8r	.	.	.	.	.	.	.	.	4e\	-lei-	4g/	-son	.	.
8C/L	X X 3	.	.	.	.	.	.	.	.	.	.	.	.	.
8D/	X X 3	.	.	.	.	.	.	.	8r	.	8r	.	.	.
8E/J	X X 6	.	.	.	.	.	.	.	8e\	-son	8g/	.	.	.
!	!	!	!	!	!	!	!	!	!	!	!LO:LB:g=original	!	!	!
=28	=28	=28	=28	=28	=28	=28	=28	=28	=28	=28	=28	=28	=28	=28
4F\	X 9 7	2.ryy	.	.	.	.	2.ryy	2.ryy	4d\	Chri-	4f/	Chri-	2.ryy	2.ryy
4G\	X 8 6	.	.	.	.	.	.	.	4c\	.	4e/	.	.	.
4GG/	X X 4	.	.	.	.	.	.	.	4Bn\	-ste	4d/	-ste	.	.
.	X X 3	.	.	.	.	.	.	.	.	.	.	.	.	.
=29	=29	=29	=29	=29	=29	=29	=29	=29	=29	=29	=29	=29	=29	=29
4C/	.	2.ryy	.	.	.	.	2.ryy	2.ryy	8c\L	e-	8e/L	e-	2.ryy	2.ryy
.	.	.	.	.	.	.	.	.	8d\J	-lei-	8f/J	-lei-	.	.
8r	.	.	.	.	.	.	.	.	4e\	-son	4g/	-son	.	.
8C/L	.	.	.	.	.	.	.	.	.	.	.	.	.	.
8E/	.	.	.	.	.	.	.	.	4r	.	4r	.	.	.
8D/J	.	.	.	.	.	.	.	.	.	.	.	.	.	.
!LO:LB:g=original	!	!	!	!	!	!	!	!	!	!	!	!	!	!
=30	=30	=30	=30	=30	=30	=30	=30	=30	=30	=30	=30	=30	=30	=30
!	!	!	!	!LO:N:vis=00	!LO:N:vis=00	!	!	!	!	!	!	!	!	!
4C/	X 5_ 3_	2.ryy	.	0.r	0.r	.	2.ryy	2.ryy	8e\L	Chri-	(>8g\L	Chri-	2.ryy	2.ryy
.	.	.	.	.	.	.	.	.	8g\	.	8b-\)	.	.	.
4C/	.	.	.	.	.	.	.	.	8g\	.	(>8b-\	.	.	.
.	.	.	.	.	.	.	.	.	8f\	.	8a\)	-ste	.	.
4C/	X 6 4	.	.	.	.	.	.	.	8f\	.	(>8a\	.	.	.
.	X X 3	.	.	.	.	.	.	.	8e\J	-ste	8g\J)	.	.	.
=31	=31	=31	=31	=31	=31	=31	=31	=31	=31	=31	=31	=31	=31	=31
4D\	.	2.ryy	.	.	.	.	2.ryy	2.ryy	8d\L	e-	(>8f\L	e-	2.ryy	2.ryy
.	.	.	.	.	.	.	.	.	8f\J	.	8dd\)	.	.	.
4E\	X X 6/	.	.	.	.	.	.	.	4g\	-e-	(>8dd\	.	.	.
.	.	.	.	.	.	.	.	.	.	.	8cc#X\)	.	.	.
4F\	X X 6	.	.	.	.	.	.	.	8a\L	-lei-	(>8dd\	.	.	.
.	.	.	.	.	.	.	.	.	8f\J	-son	8a\J)	.	.	.
=32	=32	=32	=32	=32	=32	=32	=32	=32	=32	=32	=32	=32	=32	=32
4G\	X X 6	2.ryy	.	.	.	.	2.ryy	2.ryy	8f\L	Chri-	8a\L	-lei-	2.ryy	2.ryy
.	.	.	.	.	.	.	.	.	16g\L	.	16b-\L	.	.	.
.	.	.	.	.	.	.	.	.	16f\JJ	.	16a\JJ	.	.	.
4r	.	.	.	.	.	.	.	.	8f\L	-ste	8a\L	-son	.	.
.	.	.	.	.	.	.	.	.	8e\	.	8g\	.	.	.
4G#X\	X 7 5	.	.	.	.	.	.	.	8e\	.	8g\	.	.	.
.	.	.	.	.	.	.	.	.	8d\J	e-	8f\J	.	.	.
=33	=33	=33	=33	=33	=33	=33	=33	=33	=33	=33	=33	=33	=33	=33
4A\	X X 4	2.ryy	.	.	.	.	2.ryy	2.ryy	(>8.d\L	-lei-	8.f/L	e-	2.ryy	2.ryy
.	.	.	.	.	.	.	.	.	32c#X\LL	.	32e/LL	-lei-	.	.
.	.	.	.	.	.	.	.	.	32d\JJJ)	.	32f/JJJ	.	.	.
8A\L	X X #	.	.	.	.	.	.	.	4c#\	-son	4e/	-son	.	.
8Gn\	.	.	.	.	.	.	.	.	.	.	.	.	.	.
8F\	.	.	.	.	.	.	.	.	4r	.	4r	.	.	.
8E\J	.	.	.	.	.	.	.	.	.	.	.	.	.	.
!	!	!	!	!	!LO:LB:g=original	!	!	!	!LO:LB:g=original	!	!	!	!	!
=34	=34	=34	=34	=34	=34	=34	=34	=34	=34	=34	=34	=34	=34	=34
!	!	!	!	!	!	!	!	!	!LO:TX:a:t=3	!	!LO:TX:a:t=2	!	!	!
!	!	!	!	!	!	!	!	!	!LO:N:vis=0	!	!LO:N:vis=0	!	!	!
4F\	X X 6	2.ryy	.	8A/	8a/	.	2.ryy	2.ryy	1.r	.	1.r	.	2.ryy	2.ryy
.	.	.	.	4A/	4a/	.	.	.	.	.	.	.	.	.
4E\	X 4 2	.	.	.	.	.	.	.	.	.	.	.	.	.
.	.	.	.	8f/	8ff\	.	.	.	.	.	.	.	.	.
4G\	.	.	.	16f/LL	16ff\LL	.	.	.	.	.	.	.	.	.
.	.	.	.	16e/	16ee\	.	.	.	.	.	.	.	.	.
.	.	.	.	16d/	16dd\	.	.	.	.	.	.	.	.	.
.	.	.	.	16c#X/JJ	16cc#X\JJ	.	.	.	.	.	.	.	.	.
=35	=35	=35	=35	=35	=35	=35	=35	=35	=35	=35	=35	=35	=35	=35
4F\	X X 6	2.ryy	.	16d/LL	16dd\LL	.	2.ryy	2.ryy	.	.	.	.	2.ryy	2.ryy
.	.	.	.	16A/JJ	16a\JJ	.	.	.	.	.	.	.	.	.
.	.	.	.	4A/	4a\	.	.	.	.	.	.	.	.	.
4D\	.	.	.	.	.	.	.	.	.	.	.	.	.	.
.	.	.	.	8f/	8ff\	.	.	.	.	.	.	.	.	.
4G\	X 4 2	.	.	16f/LL	16ff\LL	.	.	.	.	.	.	.	.	.
.	.	.	.	16e/	16ee\	.	.	.	.	.	.	.	.	.
.	.	.	.	16d/	16dd\	.	.	.	.	.	.	.	.	.
.	.	.	.	16c#X/JJ	16cc#X\JJ	.	.	.	.	.	.	.	.	.
!	!	!	!	!LO:LB:g=original	!	!	!	!	!	!	!	!	!	!
=36	=36	=36	=36	=36	=36	=36	=36	=36	=36	=36	=36	=36	=36	=36
4F\	.	2.ryy	.	16d/LL	16dd\LL	.	2.ryy	2.ryy	2.r	.	4r	.	2.ryy	2.ryy
.	.	.	.	16A/J	16a\J	.	.	.	.	.	.	.	.	.
.	.	.	.	8A/J	8a\J	.	.	.	.	.	.	.	.	.
4D\	.	.	.	4r	4r	.	.	.	.	.	8r	.	.	.
.	.	.	.	.	.	.	.	.	.	.	8a\	e-	.	.
4r	.	.	.	4r	4r	.	.	.	.	.	8dd\L	-lei-	.	.
.	.	.	.	.	.	.	.	.	.	.	8cc\J	.	.	.
=37	=37	=37	=37	=37	=37	=37	=37	=37	=37	=37	=37	=37	=37	=37
4G\	.	2.ryy	.	4d/	4b-\	.	2.ryy	2.ryy	4r	.	8b-\L	-son	2.ryy	2.ryy
.	.	.	.	.	.	.	.	.	.	.	8a\J	.	.	.
4G\	.	.	.	4d/	4b-\	.	.	.	8r	.	4b-\	.	.	.
.	.	.	.	.	.	.	.	.	8d\L	Chri-	.	.	.	.
4r	.	.	.	4d/	4b-\	.	.	.	8g\	.	4r	.	.	.
.	.	.	.	.	.	.	.	.	8f\J	-ste	.	.	.	.
!	!	!	!	!	!	!	!	!	!	!	!LO:LB:g=original	!	!	!
=38	=38	=38	=38	=38	=38	=38	=38	=38	=38	=38	=38	=38	=38	=38
4C/	8 5 3	2.ryy	.	4e/	4b-\	.	2.ryy	2.ryy	8e\L	e-	4r	.	2.ryy	2.ryy
.	.	.	.	.	.	.	.	.	8d\J	-lei-	.	.	.	.
4C/	.	.	.	4e/	4b-\	.	.	.	4e\	-son	8r	.	.	.
.	.	.	.	.	.	.	.	.	.	.	8g\	e-	.	.
4r	.	.	.	4e/	8ccn\L	.	.	.	4r	.	8cc\L	-lei-	.	.
.	.	.	.	.	8b-\J	.	.	.	.	.	8b-\J	.	.	.
=39	=39	=39	=39	=39	=39	=39	=39	=39	=39	=39	=39	=39	=39	=39
4F\	.	2.ryy	.	4c/	4a/	.	2.ryy	2.ryy	4r	.	8a\L	.	2.ryy	2.ryy
.	.	.	.	.	.	.	.	.	.	.	8g\J	.	.	.
4F\	.	.	.	4c/	4a/	.	.	.	8r	.	4a\	-son	.	.
.	.	.	.	.	.	.	.	.	8c\L	Chri-	.	.	.	.
4r	.	.	.	4c/	4a/	.	.	.	8f\	.	4r	.	.	.
.	.	.	.	.	.	.	.	.	8e\J	-ste	.	.	.	.
!LO:LB:g=original	!	!	!	!	!	!	!	!	!	!	!	!	!	!
=40	=40	=40	=40	=40	=40	=40	=40	=40	=40	=40	=40	=40	=40	=40
4BB-/	X X 3	2.ryy	.	4d/	4a/	.	2.ryy	2.ryy	8d\L	e-	4r	.	2.ryy	2.ryy
.	.	.	.	.	.	.	.	.	8c#X\J	.	.	.	.	.
4BB-/	8 5 3	.	.	4d/	4a/	.	.	.	8d\	-lei-	8r	.	.	.
.	.	.	.	.	.	.	.	.	8d\	-son	8b-\	Chri-	.	.
4r	.	.	.	4d/	4b-/	.	.	.	4d\	.	8b-\	-ste	.	.
.	.	.	.	.	.	.	.	.	.	.	8b-\	e-	.	.
=41	=41	=41	=41	=41	=41	=41	=41	=41	=41	=41	=41	=41	=41	=41
*	*	*	*	*	*	*	*	*	*2\right	*	*	*	*	*
4C/	X X 7-	2.ryy	.	4e/	4b-/	.	2.ryy	2.ryy	2.e\	Chri-	8.b-\L	-lei-	2.ryy	2.ryy
.	.	.	.	.	.	.	.	.	.	.	32cc\LL	.	.	.
.	.	.	.	.	.	.	.	.	.	.	32dd\JJJ	.	.	.
4r	.	.	.	4r	4r	.	.	.	.	.	8cc\L	.	.	.
.	.	.	.	.	.	.	.	.	.	.	8b-\	-son	.	.
4C/	.	.	.	4e/	4b-/	.	.	.	.	.	8a\	.	.	.
.	.	.	.	.	.	.	.	.	.	.	8g\J	.	.	.
=42	=42	=42	=42	=42	=42	=42	=42	=42	=42	=42	=42	=42	=42	=42
4F\	X X 3_	2.ryy	.	4c/	4a/	.	2.ryy	2.ryy	8f\	-ste	8a\	Ky-	2.ryy	2.ryy
.	.	.	.	.	.	.	.	.	8e\	Chri-	8g\	-ri-	.	.
4D\	.	.	.	4f/	4a/	.	.	.	8f\	-ste	8a\	-e	.	.
.	.	.	.	.	.	.	.	.	8e\	e-	8g\	e-	.	.
4BBn\	X X X	.	.	4f/	4a/	.	.	.	8f\	-lei-	8a\	-lei-	.	.
.	.	.	.	.	.	.	.	.	8f\	-son	8a\	-son	.	.
!	!	!	!	!	!LO:LB:g=original	!	!	!	!	!	!	!	!	!
=43	=43	=43	=43	=43	=43	=43	=43	=43	=43	=43	=43	=43	=43	=43
4C/	X X 4	2.ryy	.	8.f/L	8.a/L	.	2.ryy	2.ryy	8.f\L	e-	8.a\L	Chri-	2.ryy	2.ryy
.	.	.	.	32e/LL	32g/LL	.	.	.	32e\LL	-lei-	32g\LL	.	.	.
.	.	.	.	32f/JJJ	32a/JJJ	.	.	.	32f\JJJ	.	32a\JJJ	.	.	.
4C/	X X 3n	.	.	4e/	4g/	.	.	.	4e\	-son	4g\	-ste	.	.
4r	.	.	.	4r	4r	.	.	.	4r	.	4r	.	.	.
=44	=44	=44	=44	=44	=44	=44	=44	=44	=44	=44	=44	=44	=44	=44
!	!	!LO:TX:b:i:t=Solo.	!	!	!	!	!	!	!	!	!	!	!	!
!	!	!	!	!	!	!	!	!	!LO:N:vis=00	!	!LO:N:vis=00	!	!	!
16E\LL	.	8b-\L	.	4G/	4c/	.	2.ryy	2.ryy	0.r	.	0.r	.	2.ryy	2.ryy
16c\	.	.	.	.	.	.	.	.	.	.	.	.	.	.
16G\	.	8b-\J	.	.	.	.	.	.	.	.	.	.	.	.
16c\JJ	.	.	.	.	.	.	.	.	.	.	.	.	.	.
*rep	*	*	*	*	*	*	*	*	*	*	*	*	*	*
16E\LL	.	16r	.	4G/	4c/	.	.	.	.	.	.	.	.	.
!	!	!	!	!	!	!	!	!	!LO:TX:a:t=6.	!	!LO:TX:a:t=6	!	!	!
16c\	.	16b-\LL	.	.	.	.	.	.	.	.	.	.	.	.
16G\	.	16cc\	.	.	.	.	.	.	.	.	.	.	.	.
16c\JJ	.	16b-\JJ	.	.	.	.	.	.	.	.	.	.	.	.
*Xrep	*	*	*	*	*	*	*	*	*	*	*	*	*	*
*rep	*	*	*	*	*	*	*	*	*	*	*	*	*	*
16E\LL	.	16gg\LL	.	4G/	4c/	.	.	.	.	.	.	.	.	.
16c\	.	16b-\	.	.	.	.	.	.	.	.	.	.	.	.
16G\	.	16cc\	.	.	.	.	.	.	.	.	.	.	.	.
16c\JJ	.	16b-\JJ	.	.	.	.	.	.	.	.	.	.	.	.
*Xrep	*	*	*	*	*	*	*	*	*	*	*	*	*	*
=45	=45	=45	=45	=45	=45	=45	=45	=45	=45	=45	=45	=45	=45	=45
16F\LL	.	8a\L	.	4A/	4c/	.	2.ryy	2.ryy	.	.	.	.	2.ryy	2.ryy
16c\	.	.	.	.	.	.	.	.	.	.	.	.	.	.
16A\	.	8a\J	.	.	.	.	.	.	.	.	.	.	.	.
16c\JJ	.	.	.	.	.	.	.	.	.	.	.	.	.	.
*rep	*	*	*	*	*	*	*	*	*	*	*	*	*	*
16F\LL	.	16r	.	4A/	4c/	.	.	.	.	.	.	.	.	.
16c\	.	16a\LL	.	.	.	.	.	.	.	.	.	.	.	.
16A\	.	16cc\	.	.	.	.	.	.	.	.	.	.	.	.
16c\JJ	.	16a\JJ	.	.	.	.	.	.	.	.	.	.	.	.
*Xrep	*	*	*	*	*	*	*	*	*	*	*	*	*	*
*rep	*	*	*	*	*	*	*	*	*	*	*	*	*	*
16F\LL	.	16ff\LL	.	4A/	4c/	.	.	.	.	.	.	.	.	.
16c\	.	16cc\	.	.	.	.	.	.	.	.	.	.	.	.
16A\	.	16b-\	.	.	.	.	.	.	.	.	.	.	.	.
16c\JJ	.	16a\JJ	.	.	.	.	.	.	.	.	.	.	.	.
*Xrep	*	*	*	*	*	*	*	*	*	*	*	*	*	*
=46	=46	=46	=46	=46	=46	=46	=46	=46	=46	=46	=46	=46	=46	=46
16E\LL	.	8b-\L	.	4G/	4c/	.	2.ryy	2.ryy	.	.	.	.	2.ryy	2.ryy
16c\	.	.	.	.	.	.	.	.	.	.	.	.	.	.
16G\	.	8b-\J	.	.	.	.	.	.	.	.	.	.	.	.
16c\JJ	.	.	.	.	.	.	.	.	.	.	.	.	.	.
*rep	*	*	*	*	*	*	*	*	*	*	*	*	*	*
16E\LL	.	16r	.	4G/	4c/	.	.	.	.	.	.	.	.	.
16c\	.	16b-\LL	.	.	.	.	.	.	.	.	.	.	.	.
16G\	.	16cc\	.	.	.	.	.	.	.	.	.	.	.	.
16c\JJ	.	16b-\JJ	.	.	.	.	.	.	.	.	.	.	.	.
*Xrep	*	*	*	*	*	*	*	*	*	*	*	*	*	*
!LO:LB:g=original	!	!LO:LB:g=original	!	!	!	!	!	!	!	!	!	!	!	!
16E\LL	.	16gg\LL	.	4G/	4c/	.	.	.	.	.	.	.	.	.
16c\	.	16b-\	.	.	.	.	.	.	.	.	.	.	.	.
16G\	.	16cc\	.	.	.	.	.	.	.	.	.	.	.	.
16c\JJ	.	16b-\JJ	.	.	.	.	.	.	.	.	.	.	.	.
=47	=47	=47	=47	=47	=47	=47	=47	=47	=47	=47	=47	=47	=47	=47
16F\LL	.	8a\L	.	4A/	4c/	.	2.ryy	2.ryy	.	.	.	.	2.ryy	2.ryy
16c\	.	.	.	.	.	.	.	.	.	.	.	.	.	.
16A\	.	8a\J	.	.	.	.	.	.	.	.	.	.	.	.
16c\JJ	.	.	.	.	.	.	.	.	.	.	.	.	.	.
*rep	*	*	*	*	*	*	*	*	*	*	*	*	*	*
16F\LL	.	16r	.	4A/	4c/	.	.	.	.	.	.	.	.	.
16c\	.	16a\LL	.	.	.	.	.	.	.	.	.	.	.	.
16A\	.	16cc\	.	.	.	.	.	.	.	.	.	.	.	.
16c\JJ	.	16a\JJ	.	.	.	.	.	.	.	.	.	.	.	.
*Xrep	*	*	*	*	*	*	*	*	*	*	*	*	*	*
*rep	*	*	*	*	*	*	*	*	*	*	*	*	*	*
16F\LL	.	16ff\LL	.	4A/	4c/	.	.	.	.	.	.	.	.	.
16c\	.	16cc\	.	.	.	.	.	.	.	.	.	.	.	.
16A\	.	16b-\	.	.	.	.	.	.	.	.	.	.	.	.
16c\JJ	.	16a\JJ	.	.	.	.	.	.	.	.	.	.	.	.
*Xrep	*	*	*	*	*	*	*	*	*	*	*	*	*	*
=48	=48	=48	=48	=48	=48	=48	=48	=48	=48	=48	=48	=48	=48	=48
!	!	!	!	!	!	!	!	!	!LO:N:vis=0	!	!LO:N:vis=0	!	!	!
16BB-\LL	.	16dd\LL	.	4d/	4g/	.	2.ryy	2.ryy	1.r	.	1.r	.	2.ryy	2.ryy
16G\	.	16b-\	.	.	.	.	.	.	.	.	.	.	.	.
16D\	.	16a\	.	.	.	.	.	.	.	.	.	.	.	.
16G\JJ	.	16g\JJ	.	.	.	.	.	.	.	.	.	.	.	.
16C\LL	.	16cc\LL	.	4A/	4f/	.	.	.	.	.	.	.	.	.
16A\	.	16a\	.	.	.	.	.	.	.	.	.	.	.	.
16F\	.	16g\	.	.	.	.	.	.	.	.	.	.	.	.
16A\JJ	.	16f\JJ	.	.	.	.	.	.	.	.	.	.	.	.
16C\LL	.	16b-\LL	.	4B-/	4e/	.	.	.	.	.	.	.	.	.
16B-\	.	16g\	.	.	.	.	.	.	.	.	.	.	.	.
16G\	.	16f\	.	.	.	.	.	.	.	.	.	.	.	.
16B-\JJ	.	16e\JJ	.	.	.	.	.	.	.	.	.	.	.	.
=49	=49	=49	=49	=49	=49	=49	=49	=49	=49	=49	=49	=49	=49	=49
16F\LL	.	16f\LL	.	8A/L	8f/L	.	2.ryy	2.ryy	.	.	.	.	2.ryy	2.ryy
16F\	.	16ff\	.	.	.	.	.	.	.	.	.	.	.	.
16E\	.	16ee\	.	16A/L	16f/L	.	.	.	.	.	.	.	.	.
16F\JJ	.	16ff\JJ	.	16B-/JJ	16g/JJ	.	.	.	.	.	.	.	.	.
16C/LL	.	16cc\LL	.	8A/L	8f/L	.	.	.	.	.	.	.	.	.
16F/	.	16ff\	.	.	.	.	.	.	.	.	.	.	.	.
16AA/	.	16a\	.	16A/L	16f/L	.	.	.	.	.	.	.	.	.
16C/JJ	.	16cc\JJ	.	16B-/JJ	16g/JJ	.	.	.	.	.	.	.	.	.
4FF/	.	4f/	.	4A/	4f/	.	.	.	.	.	.	.	.	.
!	!	!	!	!	!	!	!	!	!	!	!LO:LB:g=original	!	!	!
=50	=50	=50	=50	=50	=50	=50	=50	=50	=50	=50	=50	=50	=50	=50
!	!	!	!	!LO:TX:a:t=5	!LO:TX:a:t=5	!	!	!	!	!	!	!	!	!
!	!	!	!	!LO:N:vis=00	!LO:N:vis=00	!	!	!	!	!	!	!	!	!
4F\	X X 3	2.ryy	.	0.r	0.r	.	2.ryy	2.ryy	8f\L	Chri-	8a\L	Ky-	2.ryy	2.ryy
.	.	.	.	.	.	.	.	.	8e\	.	8g\	.	.	.
4r	.	.	.	.	.	.	.	.	8f\	.	8a\	-ri-	.	.
.	.	.	.	.	.	.	.	.	8e\	.	8g\	.	.	.
4r	.	.	.	.	.	.	.	.	8f\	.	8a\	-e	.	.
.	.	.	.	.	.	.	.	.	8e\J	-ste	8g\J	e-	.	.
=51	=51	=51	=51	=51	=51	=51	=51	=51	=51	=51	=51	=51	=51	=51
4F\	X X 3_	2.ryy	.	.	.	.	2.ryy	2.ryy	4.f\	e-	4.a\	-lei-	2.ryy	2.ryy
4D\	.	.	.	.	.	.	.	.	.	.	.	.	.	.
.	.	.	.	.	.	.	.	.	8g\	-lei-	8b-\	-son	.	.
4AA/	X X 6	.	.	.	.	.	.	.	4a\	-son	4cc\	.	.	.
!LO:LB:g=original	!	!LO:LB:g=original	!	!	!	!	!	!	!LO:LB:g=original	!	!	!	!	!
=52	=52	=52	=52	=52	=52	=52	=52	=52	=52	=52	=52	=52	=52	=52
8BB-/L	X X 6	2.ryy	.	.	.	.	2.ryy	2.ryy	4g\	Chri-	4b-\	Ky-	2.ryy	2.ryy
8BB-/	.	.	.	.	.	.	.	.	.	.	.	.	.	.
8C/	.	.	.	.	.	.	.	.	4f\	.	4a\	-ri-	.	.
8C/	X X 4	.	.	.	.	.	.	.	.	.	.	.	.	.
.	X X 3	.	.	.	.	.	.	.	.	.	.	.	.	.
8C/	.	.	.	.	.	.	.	.	4e\	-ste	4g\	-e	.	.
8C/J	.	.	.	.	.	.	.	.	.	.	.	.	.	.
=53	=53	=53	=53	=53	=53	=53	=53	=53	=53	=53	=53	=53	=53	=53
4F\	X X 7	2.ryy	.	.	.	.	2.ryy	2.ryy	8f\L	e-	8a\L	e-	2.ryy	2.ryy
.	.	.	.	.	.	.	.	.	8g\	.	8b-\	.	.	.
4r	.	.	.	.	.	.	.	.	8a\	-lei-	8cc\	.	.	.
.	.	.	.	.	.	.	.	.	8b-\J	.	8dd\	.	.	.
4F\	.	.	.	.	.	.	.	.	4a\	-son	8cc\	.	.	.
.	.	.	.	.	.	.	.	.	.	.	8ff\J	.	.	.
=54	=54	=54	=54	=54	=54	=54	=54	=54	=54	=54	=54	=54	=54	=54
8BB-/L	8 5 3	2.ryy	.	2.r	2.r	.	2.ryy	2.ryy	8b-\L	e-	8dd\L	.	2.ryy	2.ryy
8BB-/	.	.	.	.	.	.	.	.	16a\L	-lei-	16cc\L	-lei-	.	.
.	.	.	.	.	.	.	.	.	16g\JJ	.	16b-\JJ	.	.	.
8C/	.	.	.	.	.	.	.	.	4f\	.	4a\	.	.	.
8C/	X X 4	.	.	.	.	.	.	.	.	.	.	.	.	.
.	X X 3	.	.	.	.	.	.	.	.	.	.	.	.	.
8C/	.	.	.	.	.	.	.	.	4e\	.	4g\	.	.	.
8C/J	.	.	.	.	.	.	.	.	.	.	.	.	.	.
!	!	!	!	!LO:LB:g=original	!	!	!	!	!	!	!	!	!	!
=55	=55	=55	=55	=55	=55	=55	=55	=55	=55	=55	=55	=55	=55	=55
4F\	.	2.ryy	.	8A/	8f/	.	2.ryy	2.ryy	4f\	-son	4f/	-son	2.ryy	2.ryy
.	.	.	.	4c/	4cc\	.	.	.	.	.	.	.	.	.
4G\	X X 6	.	.	.	.	.	.	.	4r	.	4r	.	.	.
.	.	.	.	8a/	8aa\	.	.	.	.	.	.	.	.	.
4B-\	X 4 2	.	.	16a/LL	16aa\LL	.	.	.	4r	.	4r	.	.	.
.	.	.	.	16g/	16gg\	.	.	.	.	.	.	.	.	.
.	.	.	.	16f/	16ff\	.	.	.	.	.	.	.	.	.
.	.	.	.	16e/JJ	16ee\JJ	.	.	.	.	.	.	.	.	.
=56	=56	=56	=56	=56	=56	=56	=56	=56	=56	=56	=56	=56	=56	=56
!	!	!	!	!	!	!	!	!	!LO:N:vis=00	!	!LO:N:vis=00	!	!	!
4A\	X X 6	2.ryy	.	16f/LL	16ff\LL	.	2.ryy	2.ryy	0.r	.	0.r	.	2.ryy	2.ryy
.	.	.	.	16c/JJ	16cc\JJ	.	.	.	.	.	.	.	.	.
.	.	.	.	4c/	4cc\	.	.	.	.	.	.	.	.	.
4F\	.	.	.	.	.	.	.	.	.	.	.	.	.	.
!	!	!	!	!	!	!	!	!	!LO:TX:a:t=6	!	!LO:TX:a:t=6	!	!	!
.	.	.	.	8a/	8aa\	.	.	.	.	.	.	.	.	.
4B-\	X 4 2	.	.	16a/LL	16aa\LL	.	.	.	.	.	.	.	.	.
.	.	.	.	16g/	16gg\	.	.	.	.	.	.	.	.	.
.	.	.	.	16f/	16ff\	.	.	.	.	.	.	.	.	.
.	.	.	.	16e/JJ	16ee\JJ	.	.	.	.	.	.	.	.	.
!	!	!	!	!	!LO:LB:g=original	!	!	!	!	!	!	!	!	!
=57	=57	=57	=57	=57	=57	=57	=57	=57	=57	=57	=57	=57	=57	=57
4A\	X X 6	2.ryy	.	16f/LL	16ff\LL	.	2.ryy	2.ryy	.	.	.	.	2.ryy	2.ryy
.	.	.	.	16c/	16cc\	.	.	.	.	.	.	.	.	.
.	.	.	.	16d/	16dd\	.	.	.	.	.	.	.	.	.
.	.	.	.	16e/JJ	16ee\JJ	.	.	.	.	.	.	.	.	.
4F\	.	.	.	16f/LL	16ff\LL	.	.	.	.	.	.	.	.	.
.	.	.	.	16g/	16gg\	.	.	.	.	.	.	.	.	.
.	.	.	.	16a/	16aa\	.	.	.	.	.	.	.	.	.
.	.	.	.	16b-/JJ	16bb-\JJ	.	.	.	.	.	.	.	.	.
4r	.	.	.	16cc/LL	16ccc\LL	.	.	.	.	.	.	.	.	.
.	.	.	.	16a/	16aa\	.	.	.	.	.	.	.	.	.
.	.	.	.	16f/	16ff\	.	.	.	.	.	.	.	.	.
.	.	.	.	16c/JJ	16cc\JJ	.	.	.	.	.	.	.	.	.
=58	=58	=58	=58	=58	=58	=58	=58	=58	=58	=58	=58	=58	=58	=58
4B-\	.	2.ryy	.	16d/LL	16dd\LL	.	2.ryy	2.ryy	.	.	.	.	2.ryy	2.ryy
.	.	.	.	16e/	16ee\	.	.	.	.	.	.	.	.	.
.	.	.	.	16f/	16ff\	.	.	.	.	.	.	.	.	.
.	.	.	.	16d/JJ	16dd\JJ	.	.	.	.	.	.	.	.	.
4A\	X X 6	.	.	8c/L	8cc\L	.	.	.	.	.	.	.	.	.
.	.	.	.	8c/J	8cc\J	.	.	.	.	.	.	.	.	.
4F\	.	.	.	4c/	4cc\	.	.	.	.	.	.	.	.	.
=59	=59	=59	=59	=59	=59	=59	=59	=59	=59	=59	=59	=59	=59	=59
4G\	X X 6	2.ryy	.	16B-/LL	16b-\LL	.	2.ryy	2.ryy	.	.	.	.	2.ryy	2.ryy
.	.	.	.	16c/	16cc\	.	.	.	.	.	.	.	.	.
.	.	.	.	16d/	16dd\	.	.	.	.	.	.	.	.	.
.	.	.	.	16B-/JJ	16b-\JJ	.	.	.	.	.	.	.	.	.
4F\	.	.	.	8A/L	8a\L	.	.	.	.	.	.	.	.	.
.	.	.	.	8A/	8a\	.	.	.	.	.	.	.	.	.
4E\	.	.	.	8A/	(>8a\	.	.	.	.	.	.	.	.	.
.	.	.	.	8c/J	8cc\J)	.	.	.	.	.	.	.	.	.
!LO:LB:g=original	!	!LO:LB:g=original	!	!	!	!	!	!	!	!	!	!	!	!
=60	=60	=60	=60	=60	=60	=60	=60	=60	=60	=60	=60	=60	=60	=60
!	!	!	!	!	!	!	!	!	!LO:N:vis=0	!	!LO:N:vis=0	!	!	!
4BB-/	X X 6	2.ryy	.	16c#X/LL	16cc#X\LL	.	2.ryy	2.ryy	1.r	.	1.r	.	2.ryy	2.ryy
.	.	.	.	16d/	16dd\	.	.	.	.	.	.	.	.	.
.	.	.	.	16c#/	16cc#\	.	.	.	.	.	.	.	.	.
.	.	.	.	16d/JJ	16dd\JJ	.	.	.	.	.	.	.	.	.
4C/	X 6 4	.	.	16Bn/LL	16bn\LL	.	.	.	.	.	.	.	.	.
.	.	.	.	16cn/	16cc#\	.	.	.	.	.	.	.	.	.
.	.	.	.	16c/	16a\	.	.	.	.	.	.	.	.	.
.	.	.	.	16A/JJ	16f\JJ	.	.	.	.	.	.	.	.	.
4C/	X 7 3	.	.	8d/L	8b/L	.	.	.	.	.	.	.	.	.
.	.	.	.	16B-X/L	16g/L	.	.	.	.	.	.	.	.	.
.	.	.	.	16G/JJ	16e/JJ	.	.	.	.	.	.	.	.	.
=61	=61	=61	=61	=61	=61	=61	=61	=61	=61	=61	=61	=61	=61	=61
!	!	!	!	!	!	!	!	!	!	!	!	!	!LO:TX:a:t=P:problem:w źródle ta adnotacja zapisana na pięciolinii	!LO:TX:a:t=P:problem:w źródle ta adnotacja zapisana na pięciolinii
!	!	!	!	!	!	!	!	!	!	!	!	!	!LO:TX:a:i:t=Kyrie da Capo.	!LO:TX:a:i:t=Kyrie da Capo.
4F\	.	2.ryy	.	8A/L	8f/L	.	2.ryy	2.ryy	.	.	.	.	2.ryy	2.ryy
.	.	.	.	16B-/L	16g/L	.	.	.	.	.	.	.	.	.
.	.	.	.	16G/JJ	16e/JJ	.	.	.	.	.	.	.	.	.
4FF/	.	.	.	4A/	4f/	.	.	.	.	.	.	.	.	.
4r	.	.	.	4r	4r	.	.	.	.	.	.	.	.	.
!LO:TX:a:t=P:problem:w źródle ta adnotacja zapisana na pięciolinii (głosu basowego)	!	!	!	!	!	!	!	!	!	!	!	!	!	!
!LO:TX:a:i:t=Kyrie da capo.	!	!	!	!	!	!	!	!	!	!	!	!	!	!
==;	==;	==;	==	==;	==;	==	==	==	==;	==	==;	==	==	==
*-	*-	*-	*-	*-	*-	*-	*-	*-	*-	*-	*-	*-	*-	*-
!!!system-decoration: [g1][g2][g3]{(s9,s10)}
!!!RDF**kern: > = above
!!!RDF**kern: < = below
!!!EED: Antoni Szymański
!!!EST: 2020-11-24
!!!ENC: Berenika Jozajtis
!!!END: 2020-06-08
